!!!COM:	Bach, Johann Sebastian
!!!CDT:	1685/02/21/-1750/07/28/
!!!OTL@@DE:	Christ, unser Herr zum Jordan kam
!!!SCT:	BWV 176/6
!!!PC#:	119
!!!AGN:	chorale
**kern	**kern	**kern	**kern
*ICvox	*ICvox	*ICvox	*ICvox
*Ibass	*Itenor	*Ialto	*Isoprn
*I"Bass	*I"Tenor	*I"Alto	*I"Soprano
*clefF4	*clefGv2	*clefG2	*clefG2
*k[b-e-]	*k[b-e-]	*k[b-e-]	*k[b-e-]
*c:dor	*c:dor	*c:dor	*c:dor
*M4/4	*M4/4	*M4/4	*M4/4
*met(c)	*met(c)	*met(c)	*met(c)
*MM100	*MM100	*MM100	*MM100
4BB-	4B-	4d	8fL
.	.	.	8gJ
=1	=1	=1	=1
4F	4A-	8cL	4a-
.	.	8dJ	.
4E-	4G	4e-	4b-
4A-X	4A-X	8e-L	4cc
.	.	8fJ	.
8GL	8e-L	4g	4b-
8FJ	8dJ	.	.
=2	=2	=2	=2
8E-L	4c	4g	4ee-
8FJ	.	.	.
4G	4B	4g	8ddL
.	.	.	8ccJ
4C;	4e-;	4g;	4cc;
4G	4d	4g	4b-
=3	=3	=3	=3
4c	4c	4g	4ee-
4B-X	8dL	4g	4dd
.	8eJ	.	.
4A-	4f	8a-L	4cc
.	.	8gJ	.
8DL	8FL	4f	4b-
8EnXJ	8GJ	.	.
=4	=4	=4	=4
4F	8A-L	8c	4a-
.	8B-J	4f	.
4C	4c	.	4g
.	.	8e	.
4FF;	4A-;	4c;	4f;
8FL	8A-L	4c	8fL
8E-XJ	8GJ	.	8gJ
=5	=5	=5	=5
8D-L	8FL	4f	4a-
8CJ	8A-J	.	.
4BB-	4d-X	4g	4b-
4AA-	4e-	4a-	4cc
8E-L	8e-L	4g	4b-
8DJ	8fJ	.	.
=6	=6	=6	=6
4C	4g	4cc	4ee-
4G	4g	4b	8ddnXL
.	.	.	8ccJ
4c;	4e-;	4g;	4cc;
4G	4dnX	4g	4b-
=7	=7	=7	=7
4C	4c	8gL	4ee-
.	.	8ccJ	.
8DL	8FL	8ccL	4dd
8EJ	8GJ	8b-J	.
4F	4A-	8b-L	4cc
.	.	8a-J	.
4D-	4B-	8gL	4b-
.	.	8eJ	.
=8	=8	=8	=8
8CL	4c	4f	4a-
8BB-J	.	.	.
4C	8B-L	4e	4g
.	8A-J	.	.
4FF;	4A-;	4c;	4f;
8FL	8A-L	4c	4f
8E-XJ	8GJ	.	.
=9	=9	=9	=9
8DnXL	4F	4f	4b-
8CJ	.	.	.
4BB-	4B-	8e-XL	4b-
.	.	8dJ	.
4E-	4B-	8e-L	4g
.	.	8fJ	.
8DL	4e-	4g	4cc
8CJ	.	.	.
=10	=10	=10	=10
4G	8dL	4g	4cc
.	8cJ	.	.
4GG	4d	4g	4b
4C;	4e-;	4g;	4cc;
8cL	4e-	4g	4cc
8B-XJ	.	.	.
=11	=11	=11	=11
4AnX	4e-	4cc	4ff
4B-	4d	4b-X	4ff
4E-	8e-L	4b-	8ggL
.	8dJ	.	8ffJ
8A-L	4c	8ccL	4ee-
8GJ	.	8b-J	.
=12	=12	=12	=12
4F	8dL	4a-	8ffL
.	8cJ	.	8ee-J
4G	4B	8dL	4dd
.	.	16e-L	.
.	.	16fJJ	.
4C;	4G;	4e-;	4cc;
4G	4B	4g	4dd
=13	=13	=13	=13
4C	8cL	4g	4ee-
.	8B-XJ	.	.
8FL	8A-L	4f	4dd
8GJ	8B-J	.	.
4A-	8cL	8e-L	4cc
.	8dJ	8fJ	.
8GL	8eL	4g	4b-
8FJ	8fJ	.	.
=14	=14	=14	=14
4E	4g	4c	8ccL
.	.	.	8b-J
4F	4c	4f	4a-
4C;	4c;	4e;	4g;
8FL	8A-L	4c	8fL
8E-J	8GJ	.	8gJ
=15	=15	=15	=15
8D-L	8FL	4f	4a-
8CJ	8A-J	.	.
4BB-	4d-X	4g	4b-
4AA-X	4c	8gL	8ccL
.	.	8eJ	8b-J
8D-L	4d-	4f	4a-
8CJ	.	.	.
=16	=16	=16	=16
4BB-	4d-	8gL	8b-L
.	.	8fJ	8a-J
4C	8GL	4e	4g
.	16A-L	.	.
.	16B-JJ	.	.
4FF;	4A-;	4c;	4f;
4A	4F	4cc	4ff
=17	=17	=17	=17
8B-L	8dnXL	4b-	4ff
8cJ	8e-XJ	.	.
8dL	8fL	4b-	4ff
8B-J	8dJ	.	.
4E-	8e-L	4b-	4gg
.	8dJ	.	.
4A-	4c	8ccL	4ff
.	.	8fJ	.
=18	=18	=18	=18
8GL	4c	4.g	4ee-
8F	.	.	.
8G	4B	.	4dd
8GGJ	.	8f	.
4C;	4G;	4e;	4cc;
==	==	==	==
*-	*-	*-	*-
!!!hum2abc: -Q ''
!!!title: @{PC#}. @{OTL@@DE}
!!!YOR1: 371 vierstimmige Choralges&auml;nge von Johann Sebastian Bach, 
!!!YOR2: 4th ed. by Alfred D&ouml;rffel (Leipzig: Breitkopf und H&auml;rtel, 
!!!YOR2: c.1875). 178 pp. Plate "V.A.10".  reprint: J.S. Bach, 371 Four-Part 
!!!YOR4: Chorales (New York: Associated Music Publishers, Inc., c.1940).
!!!SMS: B&H, 4th ed, Alfred D&ouml;rffel, c.1875, plate V.A.10
!!!EED:  Craig Stuart Sapp
!!!EEV:  2009/05/22
